X:351
T:B351-  An Old Woman Poor and Blind
S:(2nd/3)
Q:1/4=120
L:1/4
M:6/4
K:Dm
A|d2d^c2c|d2dA2F|B3/2A/GA2A|(D3D2)d|\
d2d^c2c|d2dA2F|B2GA2A|(D3D2)E|\
F2FF2F|(c3d2)c/A/|d2ef2d|(^c3c2)d/e/|\
f2fe2e|d2d^c3/2=B/A|BAGA2A|(d3d2)|]

